images/41781.svg

<?xml version="1.0" encoding="UTF-8"?>
<svg xmlns="http://www.w3.org/2000/svg" xmlns:xlink="http://www.w3.org/1999/xlink" width="300pt" height="300pt" viewBox="0 0 300 300" version="1.1">
<defs>
<g>
<symbol overflow="visible" id="glyph0-0">
<path style="stroke:none;" d="M 0.546875 1.9375 L 0.546875 -7.75 L 6.046875 -7.75 L 6.046875 1.9375 Z M 1.171875 1.328125 L 5.4375 1.328125 L 5.4375 -7.140625 L 1.171875 -7.140625 Z M 1.171875 1.328125 "/>
</symbol>
<symbol overflow="visible" id="glyph0-1">
<path style="stroke:none;" d="M 1.078125 -8.015625 L 2.546875 -8.015625 L 6.09375 -1.3125 L 6.09375 -8.015625 L 7.15625 -8.015625 L 7.15625 0 L 5.6875 0 L 2.125 -6.703125 L 2.125 0 L 1.078125 0 Z M 1.078125 -8.015625 "/>
</symbol>
<symbol overflow="visible" id="glyph0-2">
<path style="stroke:none;" d="M 1.078125 -8.015625 L 2.171875 -8.015625 L 2.171875 -4.734375 L 6.109375 -4.734375 L 6.109375 -8.015625 L 7.1875 -8.015625 L 7.1875 0 L 6.109375 0 L 6.109375 -3.8125 L 2.171875 -3.8125 L 2.171875 0 L 1.078125 0 Z M 1.078125 -8.015625 "/>
</symbol>
<symbol overflow="visible" id="glyph0-3">
<path style="stroke:none;" d="M 5.890625 -7.75 L 5.890625 -6.703125 C 5.472656 -6.898438 5.082031 -7.046875 4.71875 -7.140625 C 4.351562 -7.234375 4 -7.28125 3.65625 -7.28125 C 3.070312 -7.28125 2.617188 -7.164062 2.296875 -6.9375 C 1.972656 -6.707031 1.8125 -6.382812 1.8125 -5.96875 C 1.8125 -5.613281 1.914062 -5.34375 2.125 -5.15625 C 2.34375 -4.976562 2.75 -4.832031 3.34375 -4.71875 L 4 -4.59375 C 4.8125 -4.4375 5.410156 -4.160156 5.796875 -3.765625 C 6.179688 -3.378906 6.375 -2.863281 6.375 -2.21875 C 6.375 -1.4375 6.113281 -0.84375 5.59375 -0.4375 C 5.070312 -0.0390625 4.304688 0.15625 3.296875 0.15625 C 2.921875 0.15625 2.515625 0.109375 2.078125 0.015625 C 1.648438 -0.0664062 1.207031 -0.191406 0.75 -0.359375 L 0.75 -1.46875 C 1.195312 -1.21875 1.628906 -1.03125 2.046875 -0.90625 C 2.472656 -0.78125 2.890625 -0.71875 3.296875 -0.71875 C 3.921875 -0.71875 4.398438 -0.835938 4.734375 -1.078125 C 5.066406 -1.328125 5.234375 -1.675781 5.234375 -2.125 C 5.234375 -2.519531 5.113281 -2.828125 4.875 -3.046875 C 4.632812 -3.273438 4.238281 -3.445312 3.6875 -3.5625 L 3.03125 -3.6875 C 2.21875 -3.84375 1.628906 -4.09375 1.265625 -4.4375 C 0.898438 -4.78125 0.71875 -5.257812 0.71875 -5.875 C 0.71875 -6.582031 0.96875 -7.140625 1.46875 -7.546875 C 1.96875 -7.960938 2.660156 -8.171875 3.546875 -8.171875 C 3.921875 -8.171875 4.300781 -8.132812 4.6875 -8.0625 C 5.082031 -7.988281 5.484375 -7.882812 5.890625 -7.75 Z M 5.890625 -7.75 "/>
</symbol>
<symbol overflow="visible" id="glyph0-4">
<path style="stroke:none;" d="M 4.328125 -7.28125 C 3.546875 -7.28125 2.921875 -6.984375 2.453125 -6.390625 C 1.992188 -5.804688 1.765625 -5.007812 1.765625 -4 C 1.765625 -2.988281 1.992188 -2.1875 2.453125 -1.59375 C 2.921875 -1.007812 3.546875 -0.71875 4.328125 -0.71875 C 5.117188 -0.71875 5.742188 -1.007812 6.203125 -1.59375 C 6.660156 -2.1875 6.890625 -2.988281 6.890625 -4 C 6.890625 -5.007812 6.660156 -5.804688 6.203125 -6.390625 C 5.742188 -6.984375 5.117188 -7.28125 4.328125 -7.28125 Z M 4.328125 -8.171875 C 5.453125 -8.171875 6.351562 -7.789062 7.03125 -7.03125 C 7.707031 -6.28125 8.046875 -5.269531 8.046875 -4 C 8.046875 -2.738281 7.707031 -1.726562 7.03125 -0.96875 C 6.351562 -0.21875 5.453125 0.15625 4.328125 0.15625 C 3.203125 0.15625 2.300781 -0.21875 1.625 -0.96875 C 0.957031 -1.71875 0.625 -2.726562 0.625 -4 C 0.625 -5.269531 0.957031 -6.28125 1.625 -7.03125 C 2.300781 -7.789062 3.203125 -8.171875 4.328125 -8.171875 Z M 4.328125 -8.171875 "/>
</symbol>
</g>
</defs>
<g id="surface34713">
<rect x="0" y="0" width="300" height="300" style="fill:rgb(100%,100%,100%);fill-opacity:1;stroke:none;"/>
<path style="fill:none;stroke-width:1.2;stroke-linecap:butt;stroke-linejoin:miter;stroke:rgb(0%,0%,0%);stroke-opacity:1;stroke-miterlimit:10;" d="M 43.464844 215.988281 L 52.132812 191.492188 "/>
<path style="fill:none;stroke-width:1.2;stroke-linecap:butt;stroke-linejoin:miter;stroke:rgb(0%,0%,0%);stroke-opacity:1;stroke-miterlimit:10;" d="M 52.132812 191.492188 L 77.683594 186.746094 "/>
<path style="fill:none;stroke-width:1.2;stroke-linecap:butt;stroke-linejoin:miter;stroke:rgb(0%,0%,0%);stroke-opacity:1;stroke-miterlimit:10;" d="M 53.570312 185.003906 L 74.011719 181.210938 "/>
<path style="fill:none;stroke-width:1.2;stroke-linecap:butt;stroke-linejoin:miter;stroke:rgb(0%,0%,0%);stroke-opacity:1;stroke-miterlimit:10;" d="M 35.25 171.734375 L 52.132812 191.492188 "/>
<path style="fill:none;stroke-width:1.2;stroke-linecap:butt;stroke-linejoin:miter;stroke:rgb(0%,0%,0%);stroke-opacity:1;stroke-miterlimit:10;" d="M 77.683594 186.746094 L 86.351562 162.25 "/>
<path style="fill:none;stroke-width:1.2;stroke-linecap:butt;stroke-linejoin:miter;stroke:rgb(0%,0%,0%);stroke-opacity:1;stroke-miterlimit:10;" d="M 86.351562 162.25 L 69.46875 142.492188 "/>
<path style="fill:none;stroke-width:1.2;stroke-linecap:butt;stroke-linejoin:miter;stroke:rgb(0%,0%,0%);stroke-opacity:1;stroke-miterlimit:10;" d="M 80.015625 164.246094 L 66.507812 148.441406 "/>
<path style="fill:none;stroke-width:1.2;stroke-linecap:butt;stroke-linejoin:miter;stroke:rgb(0%,0%,0%);stroke-opacity:1;stroke-miterlimit:10;" d="M 86.351562 162.25 L 99.125 159.878906 "/>
<path style="fill:none;stroke-width:1.2;stroke-linecap:butt;stroke-linejoin:miter;stroke:rgb(0%,0%,100%);stroke-opacity:1;stroke-miterlimit:10;" d="M 99.125 159.878906 L 111.902344 157.507812 "/>
<path style="fill:none;stroke-width:1.2;stroke-linecap:butt;stroke-linejoin:miter;stroke:rgb(0%,0%,0%);stroke-opacity:1;stroke-miterlimit:10;" d="M 69.46875 142.492188 L 43.917969 147.238281 "/>
<path style="fill:none;stroke-width:1.2;stroke-linecap:butt;stroke-linejoin:miter;stroke:rgb(0%,0%,0%);stroke-opacity:1;stroke-miterlimit:10;" d="M 43.917969 147.238281 L 35.25 171.734375 "/>
<path style="fill:none;stroke-width:1.2;stroke-linecap:butt;stroke-linejoin:miter;stroke:rgb(0%,0%,0%);stroke-opacity:1;stroke-miterlimit:10;" d="M 48.816406 151.726562 L 41.882812 171.324219 "/>
<path style="fill:none;stroke-width:1.2;stroke-linecap:butt;stroke-linejoin:miter;stroke:rgb(0%,0%,100%);stroke-opacity:1;stroke-miterlimit:10;" d="M 111.902344 157.507812 L 116.234375 145.257812 "/>
<path style="fill:none;stroke-width:1.2;stroke-linecap:butt;stroke-linejoin:miter;stroke:rgb(0%,0%,0%);stroke-opacity:1;stroke-miterlimit:10;" d="M 116.234375 145.257812 L 120.570312 133.007812 "/>
<path style=" stroke:none;fill-rule:nonzero;fill:rgb(100%,100%,100%);fill-opacity:1;" d="M 103.902344 151.007812 L 120.902344 151.007812 L 120.902344 164.007812 L 103.902344 164.007812 Z M 103.902344 151.007812 "/>
<g style="fill:rgb(0%,0%,100%);fill-opacity:1;">
  <use xlink:href="#glyph0-1" x="103.902344" y="160.90918"/>
  <use xlink:href="#glyph0-2" x="111.885742" y="160.90918"/>
</g>
<path style="fill:none;stroke-width:1.2;stroke-linecap:butt;stroke-linejoin:miter;stroke:rgb(0%,0%,0%);stroke-opacity:1;stroke-miterlimit:10;" d="M 120.570312 133.007812 L 146.117188 128.265625 "/>
<path style="fill:none;stroke-width:1.2;stroke-linecap:butt;stroke-linejoin:miter;stroke:rgb(0%,0%,0%);stroke-opacity:1;stroke-miterlimit:10;" d="M 122.007812 126.523438 L 142.449219 122.726562 "/>
<path style="fill:none;stroke-width:1.2;stroke-linecap:butt;stroke-linejoin:miter;stroke:rgb(0%,0%,0%);stroke-opacity:1;stroke-miterlimit:10;" d="M 103.6875 113.253906 L 120.570312 133.007812 "/>
<path style="fill:none;stroke-width:1.2;stroke-linecap:butt;stroke-linejoin:miter;stroke:rgb(0%,0%,0%);stroke-opacity:1;stroke-miterlimit:10;" d="M 146.117188 128.265625 L 154.785156 103.765625 "/>
<path style="fill:none;stroke-width:1.2;stroke-linecap:butt;stroke-linejoin:miter;stroke:rgb(0%,0%,0%);stroke-opacity:1;stroke-miterlimit:10;" d="M 146.117188 128.265625 L 154.558594 138.144531 "/>
<path style="fill:none;stroke-width:1.2;stroke-linecap:butt;stroke-linejoin:miter;stroke:rgb(80%,80%,0%);stroke-opacity:1;stroke-miterlimit:10;" d="M 154.558594 138.144531 L 163 148.019531 "/>
<path style="fill:none;stroke-width:1.2;stroke-linecap:butt;stroke-linejoin:miter;stroke:rgb(0%,0%,0%);stroke-opacity:1;stroke-miterlimit:10;" d="M 154.785156 103.765625 L 146.34375 93.886719 "/>
<path style="fill:none;stroke-width:1.2;stroke-linecap:butt;stroke-linejoin:miter;stroke:rgb(0%,0%,100%);stroke-opacity:1;stroke-miterlimit:10;" d="M 146.34375 93.886719 L 137.902344 84.011719 "/>
<path style="fill:none;stroke-width:1.2;stroke-linecap:butt;stroke-linejoin:miter;stroke:rgb(0%,0%,0%);stroke-opacity:1;stroke-miterlimit:10;" d="M 148.449219 105.761719 L 141.695312 97.859375 "/>
<path style="fill:none;stroke-width:1.2;stroke-linecap:butt;stroke-linejoin:miter;stroke:rgb(0%,0%,100%);stroke-opacity:1;stroke-miterlimit:10;" d="M 141.695312 97.859375 L 134.945312 89.957031 "/>
<path style="fill:none;stroke-width:1.2;stroke-linecap:butt;stroke-linejoin:miter;stroke:rgb(0%,0%,100%);stroke-opacity:1;stroke-miterlimit:10;" d="M 137.902344 84.011719 L 125.128906 86.382812 "/>
<path style="fill:none;stroke-width:1.2;stroke-linecap:butt;stroke-linejoin:miter;stroke:rgb(0%,0%,0%);stroke-opacity:1;stroke-miterlimit:10;" d="M 125.128906 86.382812 L 112.355469 88.753906 "/>
<path style=" stroke:none;fill-rule:nonzero;fill:rgb(100%,100%,100%);fill-opacity:1;" d="M 133.902344 77.511719 L 141.902344 77.511719 L 141.902344 90.511719 L 133.902344 90.511719 Z M 133.902344 77.511719 "/>
<g style="fill:rgb(0%,0%,100%);fill-opacity:1;">
  <use xlink:href="#glyph0-1" x="133.902344" y="87.413086"/>
</g>
<path style="fill:none;stroke-width:1.2;stroke-linecap:butt;stroke-linejoin:miter;stroke:rgb(0%,0%,0%);stroke-opacity:1;stroke-miterlimit:10;" d="M 112.355469 88.753906 L 103.6875 113.253906 "/>
<path style="fill:none;stroke-width:1.2;stroke-linecap:butt;stroke-linejoin:miter;stroke:rgb(0%,0%,0%);stroke-opacity:1;stroke-miterlimit:10;" d="M 117.25 93.242188 L 110.316406 112.839844 "/>
<path style="fill:none;stroke-width:1.2;stroke-linecap:butt;stroke-linejoin:miter;stroke:rgb(80%,80%,0%);stroke-opacity:1;stroke-miterlimit:10;" d="M 164.988281 150.34375 L 174.867188 141.902344 "/>
<path style="fill:none;stroke-width:1.2;stroke-linecap:butt;stroke-linejoin:miter;stroke:rgb(100%,0%,0%);stroke-opacity:1;stroke-miterlimit:10;" d="M 174.867188 141.902344 L 184.742188 133.460938 "/>
<path style="fill:none;stroke-width:1.2;stroke-linecap:butt;stroke-linejoin:miter;stroke:rgb(80%,80%,0%);stroke-opacity:1;stroke-miterlimit:10;" d="M 161.015625 145.695312 L 170.894531 137.253906 "/>
<path style="fill:none;stroke-width:1.2;stroke-linecap:butt;stroke-linejoin:miter;stroke:rgb(100%,0%,0%);stroke-opacity:1;stroke-miterlimit:10;" d="M 170.894531 137.253906 L 180.769531 128.8125 "/>
<path style="fill:none;stroke-width:1.2;stroke-linecap:butt;stroke-linejoin:miter;stroke:rgb(80%,80%,0%);stroke-opacity:1;stroke-miterlimit:10;" d="M 161.015625 145.695312 L 151.136719 154.136719 "/>
<path style="fill:none;stroke-width:1.2;stroke-linecap:butt;stroke-linejoin:miter;stroke:rgb(100%,0%,0%);stroke-opacity:1;stroke-miterlimit:10;" d="M 151.136719 154.136719 L 141.257812 162.578125 "/>
<path style="fill:none;stroke-width:1.2;stroke-linecap:butt;stroke-linejoin:miter;stroke:rgb(80%,80%,0%);stroke-opacity:1;stroke-miterlimit:10;" d="M 164.988281 150.34375 L 155.109375 158.785156 "/>
<path style="fill:none;stroke-width:1.2;stroke-linecap:butt;stroke-linejoin:miter;stroke:rgb(100%,0%,0%);stroke-opacity:1;stroke-miterlimit:10;" d="M 155.109375 158.785156 L 145.230469 167.226562 "/>
<path style="fill:none;stroke-width:1.2;stroke-linecap:butt;stroke-linejoin:miter;stroke:rgb(80%,80%,0%);stroke-opacity:1;stroke-miterlimit:10;" d="M 163 148.019531 L 171.441406 157.898438 "/>
<path style="fill:none;stroke-width:1.2;stroke-linecap:butt;stroke-linejoin:miter;stroke:rgb(0%,0%,100%);stroke-opacity:1;stroke-miterlimit:10;" d="M 171.441406 157.898438 L 179.882812 167.777344 "/>
<path style=" stroke:none;fill-rule:nonzero;fill:rgb(100%,100%,100%);fill-opacity:1;" d="M 160 141.519531 L 167 141.519531 L 167 154.519531 L 160 154.519531 Z M 160 141.519531 "/>
<g style="fill:rgb(80%,80%,0%);fill-opacity:1;">
  <use xlink:href="#glyph0-3" x="160" y="151.420898"/>
</g>
<path style=" stroke:none;fill-rule:nonzero;fill:rgb(100%,100%,100%);fill-opacity:1;" d="M 178.757812 124.636719 L 187.757812 124.636719 L 187.757812 137.636719 L 178.757812 137.636719 Z M 178.757812 124.636719 "/>
<g style="fill:rgb(100%,0%,0%);fill-opacity:1;">
  <use xlink:href="#glyph0-4" x="178.757812" y="134.538086"/>
</g>
<path style=" stroke:none;fill-rule:nonzero;fill:rgb(100%,100%,100%);fill-opacity:1;" d="M 134.246094 158.402344 L 143.246094 158.402344 L 143.246094 171.402344 L 134.246094 171.402344 Z M 134.246094 158.402344 "/>
<g style="fill:rgb(100%,0%,0%);fill-opacity:1;">
  <use xlink:href="#glyph0-4" x="134.246094" y="168.303711"/>
</g>
<path style="fill:none;stroke-width:1.2;stroke-linecap:butt;stroke-linejoin:miter;stroke:rgb(0%,0%,100%);stroke-opacity:1;stroke-miterlimit:10;" d="M 179.882812 167.777344 L 192.660156 165.40625 "/>
<path style="fill:none;stroke-width:1.2;stroke-linecap:butt;stroke-linejoin:miter;stroke:rgb(0%,0%,0%);stroke-opacity:1;stroke-miterlimit:10;" d="M 192.660156 165.40625 L 205.433594 163.035156 "/>
<path style=" stroke:none;fill-rule:nonzero;fill:rgb(100%,100%,100%);fill-opacity:1;" d="M 171.882812 161.277344 L 188.882812 161.277344 L 188.882812 174.277344 L 171.882812 174.277344 Z M 171.882812 161.277344 "/>
<g style="fill:rgb(0%,0%,100%);fill-opacity:1;">
  <use xlink:href="#glyph0-1" x="171.882812" y="171.178711"/>
  <use xlink:href="#glyph0-2" x="179.866211" y="171.178711"/>
</g>
<path style="fill:none;stroke-width:1.2;stroke-linecap:butt;stroke-linejoin:miter;stroke:rgb(0%,0%,0%);stroke-opacity:1;stroke-miterlimit:10;" d="M 208.316406 164.054688 L 212.652344 151.804688 "/>
<path style="fill:none;stroke-width:1.2;stroke-linecap:butt;stroke-linejoin:miter;stroke:rgb(100%,0%,0%);stroke-opacity:1;stroke-miterlimit:10;" d="M 212.652344 151.804688 L 216.984375 139.554688 "/>
<path style="fill:none;stroke-width:1.2;stroke-linecap:butt;stroke-linejoin:miter;stroke:rgb(0%,0%,0%);stroke-opacity:1;stroke-miterlimit:10;" d="M 202.550781 162.015625 L 206.886719 149.765625 "/>
<path style="fill:none;stroke-width:1.2;stroke-linecap:butt;stroke-linejoin:miter;stroke:rgb(100%,0%,0%);stroke-opacity:1;stroke-miterlimit:10;" d="M 206.886719 149.765625 L 211.21875 137.515625 "/>
<path style="fill:none;stroke-width:1.2;stroke-linecap:butt;stroke-linejoin:miter;stroke:rgb(0%,0%,0%);stroke-opacity:1;stroke-miterlimit:10;" d="M 205.433594 163.035156 L 213.875 172.910156 "/>
<path style="fill:none;stroke-width:1.2;stroke-linecap:butt;stroke-linejoin:miter;stroke:rgb(0%,0%,100%);stroke-opacity:1;stroke-miterlimit:10;" d="M 213.875 172.910156 L 222.316406 182.789062 "/>
<path style=" stroke:none;fill-rule:nonzero;fill:rgb(100%,100%,100%);fill-opacity:1;" d="M 210.101562 132.035156 L 219.101562 132.035156 L 219.101562 145.035156 L 210.101562 145.035156 Z M 210.101562 132.035156 "/>
<g style="fill:rgb(100%,0%,0%);fill-opacity:1;">
  <use xlink:href="#glyph0-4" x="210.101562" y="141.936523"/>
</g>
<path style="fill:none;stroke-width:1.2;stroke-linecap:butt;stroke-linejoin:miter;stroke:rgb(0%,0%,100%);stroke-opacity:1;stroke-miterlimit:10;" d="M 222.316406 182.789062 L 235.09375 180.417969 "/>
<path style="fill:none;stroke-width:1.2;stroke-linecap:butt;stroke-linejoin:miter;stroke:rgb(0%,0%,0%);stroke-opacity:1;stroke-miterlimit:10;" d="M 235.09375 180.417969 L 247.867188 178.046875 "/>
<path style=" stroke:none;fill-rule:nonzero;fill:rgb(100%,100%,100%);fill-opacity:1;" d="M 214.316406 176.289062 L 231.316406 176.289062 L 231.316406 189.289062 L 214.316406 189.289062 Z M 214.316406 176.289062 "/>
<g style="fill:rgb(0%,0%,100%);fill-opacity:1;">
  <use xlink:href="#glyph0-1" x="214.316406" y="186.19043"/>
  <use xlink:href="#glyph0-2" x="222.299805" y="186.19043"/>
</g>
<path style="fill:none;stroke-width:1.2;stroke-linecap:butt;stroke-linejoin:miter;stroke:rgb(0%,0%,0%);stroke-opacity:1;stroke-miterlimit:10;" d="M 247.867188 178.046875 L 264.75 197.800781 "/>
<path style="fill:none;stroke-width:1.2;stroke-linecap:butt;stroke-linejoin:miter;stroke:rgb(0%,0%,0%);stroke-opacity:1;stroke-miterlimit:10;" d="M 247.867188 178.046875 L 256.535156 153.546875 "/>
</g>
</svg>

<svg xmlns="http://www.w3.org/2000/svg" xmlns:xlink="http://www.w3.org/1999/xlink" width="300pt" height="300pt" viewBox="0 0 300 300"><defs><symbol overflow="visible"><path d="M.547 1.938V-7.75h5.5v9.688zm.625-.61h4.266v-8.47H1.171zm0 0"/></symbol><symbol overflow="visible" id="a"><path d="M1.078-8.016h1.47l3.546 6.704v-6.704h1.062V0H5.688L2.124-6.703V0H1.078zm0 0"/></symbol><symbol overflow="visible" id="b"><path d="M1.078-8.016h1.094v3.282H6.11v-3.282h1.077V0H6.11v-3.813H2.17V0H1.078zm0 0"/></symbol><symbol overflow="visible" id="c"><path d="M5.89-7.75v1.047c-.417-.195-.808-.344-1.17-.438-.368-.094-.72-.14-1.064-.14-.586 0-1.04.116-1.36.343-.323.23-.483.554-.483.968 0 .357.1.626.312.814.22.18.625.324 1.22.437L4-4.593c.813.157 1.41.434 1.797.828.383.387.578.903.578 1.547 0 .783-.262 1.376-.78 1.783-.525.398-1.29.593-2.298.593-.375 0-.78-.047-1.22-.14C1.648-.066 1.208-.19.75-.36v-1.11c.445.25.88.44 1.297.564.426.125.844.187 1.25.187.625 0 1.1-.116 1.437-.358.332-.25.5-.598.5-1.047 0-.395-.12-.703-.36-.922-.24-.226-.636-.398-1.186-.515l-.657-.126c-.81-.156-1.4-.406-1.764-.75C.898-4.78.72-5.258.72-5.875c0-.707.25-1.266.75-1.672.5-.414 1.19-.625 2.077-.625.375 0 .754.04 1.14.11.395.074.797.18 1.204.312zm0 0"/></symbol><symbol overflow="visible" id="d"><path d="M4.328-7.28c-.78 0-1.406.296-1.875.89-.46.585-.687 1.382-.687 2.39 0 1.012.226 1.813.687 2.406.47.586 1.094.875 1.875.875.79 0 1.414-.288 1.875-.874.457-.593.688-1.394.688-2.406 0-1.008-.23-1.805-.687-2.39-.46-.594-1.086-.89-1.875-.89zm0-.892c1.125 0 2.024.383 2.703 1.14C7.708-6.28 8.048-5.27 8.048-4c0 1.262-.34 2.273-1.016 3.03C6.353-.22 5.454.157 4.33.157S2.3-.22 1.625-.97c-.668-.75-1-1.757-1-3.03 0-1.27.332-2.28 1-3.03.676-.76 1.578-1.142 2.703-1.142zm0 0"/></symbol></defs><g><path fill="#fff" d="M0 0h300v300H0z"/><path d="M43.465 215.988l8.668-24.496M52.133 191.492l25.55-4.746M53.57 185.004l20.442-3.793M35.25 171.734l16.883 19.758M77.684 186.746l8.668-24.496M86.352 162.25L69.47 142.492M80.016 164.246L66.508 148.44M86.352 162.25l12.773-2.37" stroke-width="1.2" stroke="#000" stroke-miterlimit="10" fill="none"/><path d="M99.125 159.88l12.777-2.372" stroke-width="1.2" stroke="#00f" stroke-miterlimit="10" fill="none"/><path d="M69.47 142.492l-25.552 4.746M43.918 147.238l-8.668 24.496M48.816 151.727l-6.933 19.597" stroke-width="1.2" stroke="#000" stroke-miterlimit="10" fill="none"/><path d="M111.902 157.508l4.332-12.25" stroke-width="1.2" stroke="#00f" stroke-miterlimit="10" fill="none"/><path d="M116.234 145.258l4.336-12.25" stroke-width="1.2" stroke="#000" stroke-miterlimit="10" fill="none"/><path d="M103.902 151.008h17v13h-17zm0 0" fill="#fff"/><g fill="#00f"><use xlink:href="#a" x="103.902" y="160.909"/><use xlink:href="#b" x="111.886" y="160.909"/></g><path d="M120.57 133.008l25.547-4.742M122.008 126.523l20.44-3.796M103.688 113.254l16.882 19.754M146.117 128.266l8.668-24.5M146.117 128.266l8.442 9.88" stroke-width="1.2" stroke="#000" stroke-miterlimit="10" fill="none"/><path d="M154.56 138.145l8.44 9.875" stroke-width="1.2" stroke="#cc0" stroke-miterlimit="10" fill="none"/><path d="M154.785 103.766l-8.44-9.88" stroke-width="1.2" stroke="#000" stroke-miterlimit="10" fill="none"/><path d="M146.344 93.887l-8.442-9.875" stroke-width="1.2" stroke="#00f" stroke-miterlimit="10" fill="none"/><path d="M148.45 105.762l-6.755-7.903" stroke-width="1.2" stroke="#000" stroke-miterlimit="10" fill="none"/><path d="M141.695 97.86l-6.75-7.903M137.902 84.012l-12.773 2.37" stroke-width="1.2" stroke="#00f" stroke-miterlimit="10" fill="none"/><path d="M125.13 86.383l-12.775 2.37" stroke-width="1.2" stroke="#000" stroke-miterlimit="10" fill="none"/><path d="M133.902 77.512h8v13h-8zm0 0" fill="#fff"/><use xlink:href="#a" x="133.902" y="87.413" fill="#00f"/><path d="M112.355 88.754l-8.668 24.5M117.25 93.242l-6.934 19.598" stroke-width="1.2" stroke="#000" stroke-miterlimit="10" fill="none"/><path d="M164.988 150.344l9.88-8.442" stroke-width="1.2" stroke="#cc0" stroke-miterlimit="10" fill="none"/><path d="M174.867 141.902l9.875-8.44" stroke-width="1.2" stroke="#f00" stroke-miterlimit="10" fill="none"/><path d="M161.016 145.695l9.88-8.44" stroke-width="1.2" stroke="#cc0" stroke-miterlimit="10" fill="none"/><path d="M170.895 137.254l9.875-8.44" stroke-width="1.2" stroke="#f00" stroke-miterlimit="10" fill="none"/><path d="M161.016 145.695l-9.88 8.442" stroke-width="1.2" stroke="#cc0" stroke-miterlimit="10" fill="none"/><path d="M151.137 154.137l-9.88 8.44" stroke-width="1.2" stroke="#f00" stroke-miterlimit="10" fill="none"/><path d="M164.988 150.344l-9.88 8.44" stroke-width="1.2" stroke="#cc0" stroke-miterlimit="10" fill="none"/><path d="M155.11 158.785l-9.88 8.442" stroke-width="1.2" stroke="#f00" stroke-miterlimit="10" fill="none"/><path d="M163 148.02l8.44 9.878" stroke-width="1.2" stroke="#cc0" stroke-miterlimit="10" fill="none"/><path d="M171.44 157.898l8.443 9.88" stroke-width="1.2" stroke="#00f" stroke-miterlimit="10" fill="none"/><path d="M160 141.52h7v13h-7zm0 0" fill="#fff"/><use xlink:href="#c" x="160" y="151.421" fill="#cc0"/><path d="M178.758 124.637h9v13h-9zm0 0" fill="#fff"/><use xlink:href="#d" x="178.758" y="134.538" fill="#f00"/><path d="M134.246 158.402h9v13h-9zm0 0" fill="#fff"/><use xlink:href="#d" x="134.246" y="168.304" fill="#f00"/><path d="M179.883 167.777l12.777-2.37" stroke-width="1.2" stroke="#00f" stroke-miterlimit="10" fill="none"/><path d="M192.66 165.406l12.774-2.37" stroke-width="1.2" stroke="#000" stroke-miterlimit="10" fill="none"/><path d="M171.883 161.277h17v13h-17zm0 0" fill="#fff"/><g fill="#00f"><use xlink:href="#a" x="171.883" y="171.179"/><use xlink:href="#b" x="179.866" y="171.179"/></g><path d="M208.316 164.055l4.336-12.25" stroke-width="1.2" stroke="#000" stroke-miterlimit="10" fill="none"/><path d="M212.652 151.805l4.332-12.25" stroke-width="1.2" stroke="#f00" stroke-miterlimit="10" fill="none"/><path d="M202.55 162.016l4.337-12.25" stroke-width="1.2" stroke="#000" stroke-miterlimit="10" fill="none"/><path d="M206.887 149.766l4.332-12.25" stroke-width="1.2" stroke="#f00" stroke-miterlimit="10" fill="none"/><path d="M205.434 163.035l8.44 9.875" stroke-width="1.2" stroke="#000" stroke-miterlimit="10" fill="none"/><path d="M213.875 172.91l8.44 9.88" stroke-width="1.2" stroke="#00f" stroke-miterlimit="10" fill="none"/><path d="M210.102 132.035h9v13h-9zm0 0" fill="#fff"/><use xlink:href="#d" x="210.102" y="141.937" fill="#f00"/><path d="M222.316 182.79l12.778-2.372" stroke-width="1.2" stroke="#00f" stroke-miterlimit="10" fill="none"/><path d="M235.094 180.418l12.773-2.37" stroke-width="1.2" stroke="#000" stroke-miterlimit="10" fill="none"/><path d="M214.316 176.29h17v13h-17zm0 0" fill="#fff"/><g fill="#00f"><use xlink:href="#a" x="214.316" y="186.19"/><use xlink:href="#b" x="222.3" y="186.19"/></g><path d="M247.867 178.047L264.75 197.8M247.867 178.047l8.668-24.5" stroke-width="1.2" stroke="#000" stroke-miterlimit="10" fill="none"/></g></svg>
